Papirus/22x22/apps/mame.svg

<svg width="22" height="22" version="1.1" xmlns="http://www.w3.org/2000/svg">
 <path d="m14.5 4-13.5 13.5h6l5.5000002-5.5v5.5l5.5-5.5v5.5l3-3v-10l-6.5 6.5z" style="fill-rule:evenodd;opacity:.2"/>
 <path d="m14.5 3.5-13.5 13.5h6l5.5000002-5.5v5.5l5.5-5.5v5.5l3-3v-10l-6.5 6.5z" style="fill-rule:evenodd;fill:#4cade9;stop-color:#000000"/>
 <path d="m14.5 3.5-13.5 13.5h0.5l13-13zm6.5 0.5-6.5 6.5v0.5l6.5-6.5z" style="fill-rule:evenodd;fill:#ffffff;opacity:.2"/>
</svg>

<svg xmlns="http://www.w3.org/2000/svg" width="22" height="22" version="1.1">
 <path style="opacity:0.2;fill-rule:evenodd" d="M 14.5,4 0.9999998,17.5 h 6 L 12.5,12 v 5.5 L 18,12 v 5.5 l 3,-3 V 4.5 L 14.5,11 Z"/>
 <path style="fill:#2b87d8;fill-rule:evenodd" d="M 14.5,3.5 0.9999998,17 h 6 L 12.5,11.5 V 17 L 18,11.5 V 17 l 3,-3 V 4 l -6.5,6.5 z"/>
 <path style="opacity:0.2;fill:#ffffff;fill-rule:evenodd" d="M 14.5,3.5 0.9999998,17 h 0.5 L 14.5,4 Z M 21,4 14.5,10.5 V 11 L 21,4.5 Z"/>
</svg>
